assets/img/braze_icons/arrow-right.svg

<svg fill="none" height="24" viewBox="0 0 24 24" width="24" xmlns="http://www.w3.org/2000/svg"><path d="m12.7071 4.29289c-.3905-.39052-1.0237-.39052-1.4142 0-.3905.39053-.3905 1.02369 0 1.41422l5.2929 5.29289h-11.5858c-.55228 0-1 .4477-1 1s.44772 1 1 1h11.5858l-5.2929 5.2929c-.3905.3905-.3905 1.0237 0 1.4142s1.0237.3905 1.4142 0l7-7c.3905-.3905.3905-1.0237 0-1.4142z" fill="#801ed7"/></svg>

<svg width="24" height="24" viewBox="0 0 24 24" fill="none" xmlns="http://www.w3.org/2000/svg">
<path d="M12.7071 4.29289C12.3166 3.90237 11.6834 3.90237 11.2929 4.29289C10.9024 4.68342 10.9024 5.31658 11.2929 5.70711L16.5858 11H5C4.44772 11 4 11.4477 4 12C4 12.5523 4.44772 13 5 13H16.5858L11.2929 18.2929C10.9024 18.6834 10.9024 19.3166 11.2929 19.7071C11.6834 20.0976 12.3166 20.0976 12.7071 19.7071L19.7071 12.7071C20.0976 12.3166 20.0976 11.6834 19.7071 11.2929L12.7071 4.29289Z" fill="#801ED7"/>
</svg>
